icon/lg/arangodb-icon.svg

<?xml version="1.0" encoding="UTF-8"?>
<svg viewBox="0 0 256 177" version="1.1" xmlns="http://www.w3.org/2000/svg" preserveAspectRatio="xMidYMid" height="1em" width="1em">
  <g>
    <path d="M251.466487,88.5489601 C249.100129,80.6905017 247.918677,76.7604075 246.204451,72.5812231 C242.900542,64.4978912 238.697141,57.9264005 232.398958,49.7825259 C217.659375,30.7547817 210.292178,21.2236117 198.270104,13.629812 C172.184796,-2.86205286 144.732951,0.0561111855 141.602022,0.434936274 C132.233452,1.56293555 111.624676,5.6744851 93.9634697,22.7146949 C83.9583357,32.3807889 77.6705312,46.2399059 74.72815,53.3147671 C71.4744057,109.706082 126.794977,132.297204 139.820333,141.741884 C144.004707,143.734608 153.631016,147.972605 161.44277,152.006487 C179.484531,161.317973 191.990948,163.244964 198.443083,164.372791 C212.502856,166.837748 234.370924,161.271268 244.749693,149.636668 C254.694284,138.48814 257.589962,123.447573 255.218411,110.041662 C254.498125,105.919561 254.487401,98.5904197 251.457838,88.523013 L251.466487,88.5489601 Z" fill="#577138"/>
    <path d="M243.511506,82.4946778 C239.744013,72.4428395 235.327846,65.7727502 230.084838,57.862398 C223.667299,48.1738166 217.931299,41.5694595 213.324855,36.3091533 C203.501349,25.0931629 198.585272,19.4851678 191.909994,15.4132305 C180.38783,8.38161417 169.24968,7.11194469 162.918631,6.45116303 C147.976662,4.90230464 136.556556,8.0700781 131.003914,9.66339221 C125.292131,11.3087731 113.974083,14.6815273 102.150935,23.9618771 C91.4435044,32.3704102 84.8564452,45.0307794 81.2723102,51.8461713 C77.9822403,57.9904029 98.2225707,107.303396 144.980657,136.450441 C147.372964,137.687417 154.034404,140.728224 158.147856,142.809167 C159.486718,143.487074 160.716602,144.093886 161.866915,144.651399 C163.724715,145.502112 165.45624,146.316326 167.087436,147.095599 C172.339094,149.467148 175.591108,150.672815 179.894838,152.925008 C194.80567,160.721194 210.546804,158.498407 212.882027,158.13515 C215.97663,157.659284 237.497009,154.329601 246.405453,137.204632 C251.105306,128.173372 250.287113,119.180168 249.169666,106.864029 C248.853286,103.371573 247.787386,93.9234328 243.494208,82.4739201" fill="#A3B34F"/>
    <path d="M171.31298,142.864521 C186.984922,148.86345 192.13971,151.997838 198.851315,152.816031 C201.056803,153.079998 222.099758,154.402945 234.433196,142.750354 C243.616678,134.080622 244.057775,125.314021 244.587093,121.179811 C246.417216,106.947059 242.369495,88.6942627 237.641966,79.733925 C231.435462,67.9626706 229.831942,65.4890638 213.182666,43.4255296 C200.852687,27.1066443 194.67386,24.0864223 188.239023,19.8484247 C177.178714,12.6161521 164.385151,12.4518216 155.70158,12.0937541 C149.313448,11.833247 137.348456,14.1746974 125.879916,18.1947408 C107.95924,24.4963837 97.493981,35.055052 90.1423525,50.0056693 C81.9811802,67.2465355 123.250627,123.435464 151.947925,134.921302" fill="#DDE072"/>
    <path d="M176.675344,109.13352 C186.668369,107.386427 193.32116,97.1322025 195.357129,88.8257271 C198.21475,77.0769601 192.304041,67.2724824 188.365298,60.7338575 C184.647969,54.5809771 178.111074,45.9717876 166.275817,41.1698771 C155.379838,36.7416019 146.919411,42.1134801 142.975479,44.3094549 C125.59104,70.0142073 139.057494,96.0995149 164.632512,109.124871 C167.860309,109.443845 174.136005,109.576693 176.670154,109.135249" fill="#A3B34F"/>
    <path d="M147.735875,133.350649 C152.122635,128.11283 160.555385,117.253177 163.966541,110.500058 C164.188992,110.060517 164.411271,109.593645 164.633722,109.109821 C168.312996,101.114709 171.962863,87.2798096 172.310552,76.3821014 C172.622434,66.6225986 169.285141,60.0268904 169.285141,60.0268904 C165.880904,51.1513126 156.090265,48.1120629 151.796914,46.4687578 C148.271592,45.1921691 145.112987,44.5400365 141.907677,44.1733199 C135.595655,43.6071581 126.841163,44.282297 111.705457,46.5033536 C96.7115948,48.6033246 81.745409,51.4661354 67.9589435,54.7856119 C51.2439351,58.8592787 42.0293176,61.1028228 31.4083767,66.2420435 C19.1424009,72.1752402 7.55450469,77.7797758 2.53809942,90.0959156 C-0.530556786,97.6395512 -0.264168367,105.235081 0.500400989,110.282622 C0.500400989,110.282622 3.80949869,143.304407 26.5338147,160.135312 C45.5615588,174.246979 73.6188326,179.457122 94.5320532,173.741879 C111.025648,170.605761 126.758133,155.146584 139.835382,141.619587 C142.506186,138.914188 145.725334,135.738284 147.740545,133.339059 L147.735875,133.350649 Z" fill="#577138"/>
    <path d="M127.030229,127.815305 C111.654082,136.843105 89.0958267,149.091782 60.8655735,148.780419 C59.9563932,148.770041 59.0406398,148.747553 58.1186592,148.710363 C48.6514916,148.328424 23.5054626,147.315629 10.5665966,130.495622 C6.99802966,125.849393 4.88940966,120.713632 3.74601521,117.222906 L3.71505187,117.146795 L3.71678166,117.145895 C3.0248637,115.018247 2.76954598,113.767606 2.76158891,113.722631 C2.56577612,112.815353 2.40455924,111.928834 2.26634863,111.010312 L2.24870472,110.948213 C2.24697493,110.937834 2.24524513,110.928666 2.24351534,110.918979 L2.24524513,110.918097 L2.24005575,110.904259 C1.51354188,106.079861 1.26445141,98.8458583 4.17223668,91.7035351 C8.9326323,80.0256895 19.7023355,74.8155473 32.1776165,68.7837523 C42.6307672,63.7275617 51.776193,61.4995858 68.3649264,57.4553254 C70.4908443,56.9405383 72.535462,56.4523902 74.5074281,55.9995301 C76.7371338,55.4944299 78.8786198,55.0159686 80.9336163,54.5809251 C84.9605788,53.7276173 88.8093726,52.9727348 92.7048707,52.2733788 L92.724331,52.2612701 C99.8718437,50.988833 106.14235,50.0540518 111.95965,49.2047224 C126.951783,47.0061531 135.588649,46.3315332 141.746719,46.8867974 C145.125009,47.184495 147.939385,47.8385304 151.158533,49.0715283 C155.555672,50.7549647 163.739332,53.8890072 167.693643,61.7682231 C168.883569,64.1432316 169.587769,66.7742496 169.790154,69.6007346 C169.814026,69.8745611 169.82994,70.1572096 169.83807,70.4389932 C170.079895,77.5398013 167.153428,84.5195237 165.581045,88.2731787 C156.746982,109.307485 140.326039,119.997618 127.023916,127.816291" fill="#A3B34F"/>
    <path d="M117.343378,128.853182 C131.982632,121.318195 143.861134,112.66922 149.984608,105.933399 C160.155802,94.7398961 164.302121,83.3595751 165.199884,74.1051723 C166.206452,63.7350517 159.685298,59.8585812 157.47289,57.9731048 C149.239066,50.9449481 138.047293,51.0573848 127.876099,51.0201598 C123.254087,51.0054908 116.622053,51.358715 96.2900437,55.7883739 C80.1199209,59.474567 76.8125528,60.2754619 57.2658703,65.6170687 C44.235325,69.2444488 36.8888861,71.686919 30.8864975,75.4561421 C22.4952624,80.7250975 12.0490308,87.2844798 9.40244463,99.9327403 C6.11410446,115.62544 17.7210284,128.69923 20.0804687,131.172837 C31.440032,143.023662 47.0998653,144.445553 57.8937857,144.483344 C62.133513,144.497447 66.1483671,144.273612 69.6875276,144.076934 C91.6213273,142.864867 106.722437,134.310512 117.343378,128.861658" fill="#DDE072"/>
    <path d="M60.5023164,65.715667 C58.8232047,66.9853365 56.0861502,69.6768973 54.6815565,71.1160868 L50.7756797,75.483819 C43.8513105,84.1812279 38.9110162,100.9464 42.6612117,105.461165 C44.5847437,107.78082 45.5949439,108.03337 46.2834023,108.495225 C55.8976025,113.144914 64.6711223,119.527857 79.0111221,120.366808 L90.9380581,120.352969 C91.9038027,120.313184 93.3217156,120.255409 94.340565,120.179298 C96.9992597,119.940067 95.8389133,119.917926 97.6738796,119.722113 C114.172664,117.013254 136.144519,105.340598 135.296919,89.0009555 C134.972583,82.8947794 127.998915,72.8931052 123.264466,68.3817999 C118.230763,63.5798891 108.822408,58.916362 106.35745,58.0358964 C105.20385,57.6797317 103.825031,57.2092273 101.524403,56.8051473 C100.311298,56.588923 99.1165286,56.3984725 97.9281595,56.261127 C97.3619976,56.1884756 96.7947978,56.1334681 96.2277712,56.0786336 C95.6553819,56.0253558 95.090085,55.9945655 94.5239232,55.9591047 C82.5450934,55.2139091 71.7944178,58.3358429 63.5087001,63.615177 C62.8211067,64.053853 62.1442378,64.5022157 61.4917592,64.9699525 C61.1541032,65.2171402 60.8254421,65.4546408 60.4967811,65.7106507" fill="#5E3108"/>
  </g>
</svg>

<svg width="256" height="177" xmlns="http://www.w3.org/2000/svg" preserveAspectRatio="xMidYMid"><path d="M251.466 88.549c-2.366-7.858-3.547-11.789-5.262-15.968-3.303-8.083-7.507-14.655-13.805-22.798-14.74-19.028-22.107-28.56-34.129-36.153C172.185-2.862 144.733.056 141.602.435c-9.369 1.128-29.977 5.24-47.639 22.28-10.005 9.666-16.292 23.525-19.235 30.6-3.254 56.391 52.067 78.982 65.092 88.427 4.185 1.993 13.811 6.23 21.623 10.264 18.042 9.312 30.548 11.239 37 12.367 14.06 2.465 35.928-3.102 46.307-14.736 9.944-11.149 12.84-26.19 10.468-39.595-.72-4.122-.73-11.452-3.76-21.519l.008.026Z" fill="#577138"/><path d="M243.512 82.495c-3.768-10.052-8.184-16.722-13.427-24.633-6.418-9.688-12.154-16.293-16.76-21.553-9.824-11.216-14.74-16.824-21.415-20.896-11.522-7.031-22.66-8.301-28.991-8.962-14.942-1.549-26.362 1.62-31.915 3.212-5.712 1.646-17.03 5.019-28.853 14.299C91.444 32.37 84.856 45.03 81.272 51.846c-3.29 6.144 16.95 55.457 63.709 84.604 2.392 1.237 9.053 4.278 13.167 6.36a236.97 236.97 0 0 0 3.719 1.841c1.858.851 3.59 1.665 5.22 2.445 5.252 2.371 8.504 3.577 12.808 5.829 14.91 7.796 30.652 5.573 32.987 5.21 3.095-.476 24.615-3.805 33.523-20.93 4.7-9.032 3.882-18.025 2.765-30.341-.317-3.492-1.383-12.94-5.676-24.39" fill="#A3B34F"/><path d="M171.313 142.865c15.672 5.998 20.827 9.133 27.538 9.951 2.206.264 23.249 1.587 35.582-10.066 9.184-8.67 9.625-17.436 10.154-21.57 1.83-14.233-2.218-32.486-6.945-41.446-6.207-11.771-7.81-14.245-24.46-36.308-12.33-16.32-18.508-19.34-24.943-23.578-11.06-7.232-23.854-7.396-32.537-7.754-6.389-.26-18.354 2.08-29.822 6.1-17.92 6.302-28.386 16.861-35.738 31.812-8.16 17.24 33.109 73.43 61.806 84.915" fill="#DDE072"/><path d="M176.675 109.134c9.993-1.748 16.646-12.002 18.682-20.308 2.858-11.749-3.053-21.554-6.992-28.092-3.717-6.153-10.254-14.762-22.09-19.564-10.895-4.428-19.356.943-23.3 3.14-17.384 25.704-3.918 51.79 21.658 64.815 3.227.319 9.503.452 12.037.01" fill="#A3B34F"/><path d="M147.736 133.35c4.387-5.237 12.82-16.097 16.23-22.85.223-.44.445-.906.668-1.39 3.679-7.995 7.329-21.83 7.677-32.728.311-9.76-3.026-16.355-3.026-16.355-3.404-8.876-13.195-11.915-17.488-13.558-3.525-1.277-6.684-1.929-9.89-2.296-6.311-.566-15.066.11-30.202 2.33-14.993 2.1-29.96 4.963-43.746 8.283-16.715 4.073-25.93 6.317-36.55 11.456C19.141 72.175 7.554 77.78 2.538 90.096-.532 97.64-.265 105.236.5 110.283c0 0 3.31 33.021 26.034 49.852 19.028 14.112 47.085 19.322 67.998 13.607 16.494-3.136 32.226-18.595 45.303-32.122 2.671-2.706 5.89-5.882 7.906-8.28l-.005.01Z" fill="#577138"/><path d="M127.03 127.815c-15.376 9.028-37.934 21.277-66.164 20.965a95.06 95.06 0 0 1-2.747-.07c-9.468-.382-34.614-1.394-47.552-18.214-3.569-4.647-5.678-9.782-6.821-13.273l-.03-.076v-.001c-.691-2.128-.946-3.378-.954-3.423a43.19 43.19 0 0 1-.496-2.713l-.017-.062-.005-.029h.001l-.005-.015c-.726-4.824-.976-12.058 1.932-19.2 4.76-11.678 15.53-16.888 28.006-22.92C42.63 63.728 51.776 61.5 68.365 57.455c2.126-.514 4.17-1.003 6.142-1.455 2.23-.506 4.372-.984 6.427-1.42a381.286 381.286 0 0 1 11.77-2.307l.02-.012c7.148-1.272 13.418-2.207 19.236-3.056 14.992-2.199 23.629-2.873 29.787-2.318 3.378.297 6.192.952 9.412 2.185 4.397 1.683 12.58 4.817 16.535 12.696 1.19 2.375 1.894 5.006 2.096 7.833.024.274.04.556.048.838.242 7.1-2.685 14.08-4.257 17.834-8.834 21.034-25.255 31.725-38.557 39.543" fill="#A3B34F"/><path d="M117.343 128.853c14.64-7.535 26.518-16.184 32.642-22.92 10.17-11.193 14.317-22.573 15.215-31.828 1.006-10.37-5.515-14.246-7.727-16.132-8.234-7.028-19.426-6.916-29.597-6.953-4.622-.015-11.254.339-31.586 4.768-16.17 3.687-19.477 4.487-39.024 9.83-13.03 3.626-20.377 6.069-26.38 9.838-8.39 5.27-18.837 11.828-21.484 24.477-3.288 15.692 8.319 28.766 10.678 31.24 11.36 11.85 27.02 13.273 37.814 13.31 4.24.014 8.254-.21 11.794-.406 21.933-1.212 37.034-9.766 47.655-15.215" fill="#DDE072"/><path d="M60.502 65.716c-1.679 1.27-4.416 3.96-5.82 5.4l-3.906 4.368C43.85 84.18 38.91 100.946 42.66 105.46c1.924 2.32 2.934 2.572 3.622 3.034 9.615 4.65 18.388 11.033 32.728 11.872l11.927-.014c.966-.04 2.384-.098 3.403-.174 2.658-.239 1.498-.261 3.333-.457 16.499-2.709 38.47-14.381 37.623-30.721-.324-6.106-7.298-16.108-12.033-20.62-5.033-4.801-14.442-9.465-16.907-10.345-1.153-.356-2.532-.827-4.833-1.23a59.366 59.366 0 0 0-3.596-.545 54.749 54.749 0 0 0-1.7-.182c-.573-.054-1.138-.084-1.704-.12-11.979-.745-22.73 2.377-31.015 7.656-.688.439-1.365.887-2.017 1.355-.338.247-.667.485-.995.74" fill="#5E3108"/></svg>
